src/16/actions/network-disconnect.svg

<svg xmlns="http://www.w3.org/2000/svg" width="16" height="16" viewBox="0 0 16 16">
 <defs>
  <style id="current-color-scheme" type="text/css">
   .ColorScheme-Text { color:#565656; } .ColorScheme-Highlight { color:#5294e2; }
  </style>
 </defs>
 <path style="fill:currentColor" class="ColorScheme-Highlight" d="M 8 0.99609375 C 4.134 0.99609375 1 4.1300937 1 7.9960938 C 1 11.862094 4.134 14.996094 8 14.996094 C 11.866 14.996094 15 11.862094 15 7.9960938 C 15 4.1300937 11.866 0.99609375 8 0.99609375 z M 7.5 2.9335938 C 7.5669 2.9265937 7.65125 2.9375937 7.71875 2.9335938 C 7.72675 2.9655938 7.67005 3.0794638 7.59375 3.2460938 C 7.10789 4.3074937 7.08033 5.5504437 7.53125 6.2148438 C 7.61285 6.3353038 7.6875 6.4499437 7.6875 6.4648438 C 7.6875 6.4797438 7.5995 6.4960938 7.5 6.4960938 C 7.26642 6.4960938 7.04538 6.3537238 6.59375 5.9960938 C 6.39312 5.8372237 6.1323 5.7037938 6.03125 5.6835938 C 5.87257 5.6518937 5.83028 5.6657938 5.625 5.8710938 C 5.43401 6.0620537 5.375 6.1650237 5.375 6.3398438 C 5.375 7.0027837 6.16208 7.5297437 7.625 7.8398438 C 9.6117 8.2609137 10.10145 8.6389138 10.15625 9.6835938 C 10.22505 10.993594 9.5276 11.981394 8 12.746094 C 7.81767 12.837394 7.7015 12.872844 7.625 12.902344 C 7.5911 12.899344 7.56505 12.905344 7.53125 12.902344 C 7.51825 12.861844 7.5 12.767884 7.5 12.589844 C 7.5 11.894064 7.22575 11.177844 6.8125 10.777344 C 6.70157 10.669824 6.39098 10.441994 6.125 10.277344 C 5.85903 10.112704 5.59105 9.9214438 5.53125 9.8398438 C 5.43215 9.7044337 5.42386 9.6212437 5.5 9.3710938 C 5.63876 8.9142237 5.80392 8.6597637 6.125 8.3710938 C 6.29333 8.2197537 6.46271 8.0928437 6.5 8.0898438 C 6.5373 8.0868438 6.28485 8.0110437 5.90625 7.9335938 C 5.52767 7.8559938 4.97383 7.6934738 4.6875 7.5898438 C 4.16392 7.4003938 3.457 7.0026837 3.1875 6.7148438 C 3.1761 6.7026437 3.16615 6.6943938 3.15625 6.6835938 C 3.54238 5.1454938 4.626 3.8848438 6.0625 3.2773438 C 6.36307 3.1502138 6.67292 3.0629938 7 2.9960938 C 7.16292 2.9627938 7.33178 2.9506937 7.5 2.9335938 z M 12.1875 5.2773438 C 12.30495 5.3499437 12.74841 6.3093438 12.875 6.7773438 C 13.03844 7.3815337 13.02661 8.4271437 12.875 9.0273438 C 12.8173 9.2557838 12.74335 9.4694937 12.71875 9.4960938 C 12.69415 9.5226938 12.60494 9.3695637 12.5 9.1835938 C 12.39505 8.9976538 12.05984 8.6025437 11.78125 8.3085938 C 10.97711 7.4600637 10.85066 7.0170437 11.1875 6.3398438 C 11.35737 5.9983538 12.0966 5.2212438 12.1875 5.2773438 z"/>
</svg>

<svg xmlns="http://www.w3.org/2000/svg" width="16" height="16"><defs><style id="current-color-scheme" type="text/css"></style></defs><path d="M8 .996a7 7 0 1 0 0 14 7 7 0 0 0 0-14zm-.5 1.938c.067-.007.151.004.219 0 .008.032-.049.145-.125.312-.486 1.061-.514 2.304-.063 2.969.082.12.157.235.157.25 0 .015-.088.031-.188.031-.234 0-.455-.142-.906-.5-.2-.159-.462-.292-.563-.312-.158-.032-.2-.018-.406.187-.191.191-.25.294-.25.469 0 .663.787 1.19 2.25 1.5 1.987.42 2.476.799 2.531 1.844.069 1.31-.628 2.297-2.156 3.062-.182.091-.298.127-.375.156-.034-.003-.06.003-.094 0a1.112 1.112 0 0 1-.031-.312c0-.696-.274-1.412-.688-1.813a5.257 5.257 0 0 0-.687-.5c-.266-.164-.534-.356-.594-.437-.099-.136-.107-.219-.031-.469.139-.457.304-.711.625-1 .168-.151.338-.278.375-.281.037-.003-.215-.079-.594-.156-.378-.078-.932-.24-1.218-.344-.524-.19-1.231-.587-1.5-.875l-.032-.031a5.026 5.026 0 0 1 2.906-3.407c.301-.127.61-.214.938-.28.163-.034.332-.046.5-.063zm4.688 2.343c.117.073.56 1.032.687 1.5.163.605.152 1.65 0 2.25-.058.229-.132.442-.156.47-.025.026-.114-.127-.219-.313s-.44-.581-.719-.875c-.804-.849-.93-1.292-.594-1.97.17-.34.91-1.118 1-1.062z" fill="currentColor" color="#5294e2"/></svg>
